X:1
T: Lady Charlotte Goold's Reel
C:R. Mackintosh
R:Reel
Q: 232
K:Em
M:4/4
L:1/8
|:B|GE E1/2E1/2E Ac BF|GE BG FD dF|GE E1/2E1/2E Ac BG|AF BF GE EB|
GE E1/2E1/2E Ac BF|GE BG FD dF|GE E1/2E1/2E Ac BG|AF BF GE EB|
eb ge Bg eB|Aa fd Af dA|eb ge Bg eB|AB GF GE EB|
eb ge Bg eB|Aa fd Af dF|GE AF BG cA|Bb fa ge e:|
